src/icons/hicolor/scalable/actions/bbm-earbuds-wingtip-right-symbolic.svg

<svg height="16" viewBox="0 0 16 16" width="16" xmlns="http://www.w3.org/2000/svg"><path d="m11.09421 7.4241425c-.606029 0-1.1209301.51537-1.1209301 1.1517028 0 .636345.4845961 1.1209416 1.1209301 1.1209416.636344 0 1.121524-.4845966 1.121524-1.1209416 0-.6363328-.48518-1.1517028-1.121524-1.1517028zm0 .4847119c.363621 0 .636229.3033815.636229.6669909 0 .3636225-.272608.6362306-.636229.6362306-.363611 0-.666523-.2726081-.636219-.6362306 0-.3636094.272608-.6669909.636219-.6669909zm-6.1509176.4545328c-1.2423731.1212037-2.5152909 1.1519428-2.5152909 2.7579388 0 1.727201 1.1514731 2.878674 2.8786838 2.878674.6666365 0 1.3029796-.242888 1.6665918-.485306-.9393478-1.605997-1.6057556-3.302904-2.0299847-5.1513068zm.6060394-6.3633872c-.4545216 0-.57585.1515075-.57585.4545225 0 .6969394.3636216 1.2121959 1.0605628 1.3333988 1.1514731.1818112 1.99968.3941662 2.9390391.8486887.3636225.1818103.5152556.4241147.4243434.7877259l-.4545206 2.636025c-.2424188 1.5150966.7877259 2.6667981 2.1513035 2.6667981.878763 0 1.848655-.545431 2.060769-1.6666018l.363382-1.9394288c.363622-2.0302246-1.151474-3.5453221-3.6362211-4.393769-1.454489-.51513-2.878319-.7273594-4.3328081-.7273594zm3.0301819 4.3333903c-1.4544891.3636234-2.4851035 1.0000819-2.9396353 1.93944.3939253 1.7272007 1.0003209 3.3029037 1.8790725 4.8482927.424229.212114.8782809.303024 1.4843222.303024 2.3029359 0 4.3636949-1.121055 4.4849099-3.363382-.454533.818143-1.363703 1.332802-2.393973 1.332802-1.8180991 0-3.0905482-1.5752211-2.7875332-3.4539392zm2.5146963 1.0907522c.636344 0 1.121524.51537 1.121524 1.1517028 0 .636345-.48518 1.1209416-1.121524 1.1209416-.636334 0-1.1209301-.4845966-1.1209301-1.1209416 0-.6363328.5149011-1.1517028 1.1209301-1.1517028zm0 .4847119c-.363611 0-.636219.3033815-.636219.6669909-.030304.3636225.272608.6362306.636219.6362306.363621 0 .636229-.2726081.636229-.6362306 0-.3636094-.272608-.6669909-.636229-.6669909z" fill="#2e3436" stroke-width=".9375"/></svg>

<svg height="16" viewBox="0 0 16 16" width="16" xmlns="http://www.w3.org/2000/svg"><path d="M 5.5488281 2 C 5.0943065 2 4.9726563 2.1520631 4.9726562 2.4550781 C 4.9726562 3.1520175 5.3362619 3.6659065 6.0332031 3.7871094 C 7.1846762 3.9689206 8.0332971 4.1821962 8.9726562 4.6367188 C 9.3362787 4.8185291 9.4873966 5.0602169 9.3964844 5.4238281 L 8.9433594 8.0605469 C 8.7009406 9.5756435 9.7301724 10.726563 11.09375 10.726562 C 11.972513 10.726562 12.942183 10.181718 13.154297 9.0605469 L 13.517578 7.1210938 C 13.8812 5.0908692 12.36756 3.5750094 9.8828125 2.7265625 C 8.4283235 2.2114325 7.0033172 2 5.5488281 2 z M 8.5800781 6.3339844 C 7.125589 6.6976078 6.0951568 7.3340794 5.640625 8.2734375 C 6.0345503 10.000638 6.6407796 11.575705 7.5195312 13.121094 C 7.9437603 13.333208 8.3978649 13.423828 9.0039062 13.423828 C 11.306842 13.423828 13.367066 12.302874 13.488281 10.060547 C 13.033748 10.87869 12.12402 11.394531 11.09375 11.394531 C 9.2756509 11.394531 8.0036256 9.8181712 8.3066406 7.9394531 L 8.5800781 6.3339844 z M 4.9433594 8.3632812 C 3.7009863 8.484485 2.4277344 9.5150977 2.4277344 11.121094 C 2.4277344 12.848295 3.5794299 14 5.3066406 14 C 5.9732771 14 6.6090441 13.758043 6.9726562 13.515625 C 6.0333084 11.909628 5.3675885 10.211684 4.9433594 8.3632812 z" fill="#2e3436" stroke-width=".9375"/></svg>
